assets/School/Flat/school_flat.svg

<svg width="32" height="32" viewBox="0 0 32 32" fill="none" xmlns="http://www.w3.org/2000/svg">
<path d="M30 16.01H2L3.71999 11.7C3.88999 11.27 4.29999 10.99 4.75999 10.99H27.24C27.7 10.99 28.11 11.27 28.28 11.7L30 16.01Z" fill="#8C5543"/>
<path d="M17.51 3.32996H20.2C20.36 3.32996 20.49 3.45996 20.49 3.61996V5.03996C20.49 5.19996 20.36 5.32996 20.2 5.32996H18.12C17.79 5.32996 17.52 5.05996 17.52 4.72996V3.32996H17.51Z" fill="#C3EF3C"/>
<path d="M19.1 4.32996H16V2.32996H19.1C19.32 2.32996 19.5 2.50996 19.5 2.72996V3.91996C19.51 4.14996 19.33 4.32996 19.1 4.32996Z" fill="#00F397"/>
<path opacity="0.7" d="M2 16H9V30H2V16ZM30 16H23V30H30V16Z" fill="#FFDEA7"/>
<path d="M22.72 13.96L16.57 7.89998C16.26 7.58998 15.76 7.58998 15.45 7.89998L9.30001 13.96C9.12001 14.14 9.01001 14.39 9.01001 14.64V15.84V16.22V30.01H12.9773L15.9912 28.8035L19.0051 30.01H23.01V16.21V15.83V14.63C23 14.38 22.9 14.14 22.72 13.96Z" fill="#FFCE7C"/>
<path d="M4.71999 21H3.28C3.13 21 3 20.87 3 20.72V18.28C3 18.13 3.13 18 3.28 18H4.71999C4.86999 18 5 18.13 5 18.28V20.72C5 20.88 4.87999 21 4.71999 21ZM8 20.72V18.28C8 18.13 7.86999 18 7.71999 18H6.28C6.13 18 6 18.13 6 18.28V20.72C6 20.87 6.13 21 6.28 21H7.71999C7.87999 21 8 20.88 8 20.72ZM5 24.72V22.28C5 22.13 4.86999 22 4.71999 22H3.28C3.13 22 3 22.13 3 22.28V24.72C3 24.87 3.13 25 3.28 25H4.71999C4.87999 25 5 24.88 5 24.72ZM8 24.72V22.28C8 22.13 7.86999 22 7.71999 22H6.28C6.13 22 6 22.13 6 22.28V24.72C6 24.87 6.13 25 6.28 25H7.71999C7.87999 25 8 24.88 8 24.72ZM25.72 21H24.28C24.13 21 24 20.87 24 20.72V18.28C24 18.13 24.13 18 24.28 18H25.72C25.87 18 26 18.13 26 18.28V20.72C26 20.88 25.88 21 25.72 21ZM27.28 21H28.72C28.88 21 29 20.88 29 20.72V18.28C29 18.13 28.87 18 28.72 18H27.28C27.13 18 27 18.13 27 18.28V20.72C27 20.87 27.13 21 27.28 21ZM25.72 25H24.28C24.13 25 24 24.87 24 24.72V22.28C24 22.13 24.13 22 24.28 22H25.72C25.87 22 26 22.13 26 22.28V24.72C26 24.88 25.88 25 25.72 25ZM27.28 25H28.72C28.88 25 29 24.88 29 24.72V22.28C29 22.13 28.87 22 28.72 22H27.28C27.13 22 27 22.13 27 22.28V24.72C27 24.87 27.13 25 27.28 25Z" fill="#83CBFF"/>
<path d="M16 18C17.6569 18 19 16.6569 19 15C19 13.3431 17.6569 12 16 12C14.3431 12 13 13.3431 13 15C13 16.6569 14.3431 18 16 18Z" fill="white"/>
<path d="M15.51 6.1994V2.47C15.51 2.21 15.72 2 15.98 2H16.04C16.3 2 16.51 2.21 16.51 2.47V6.21258C16.5559 6.2437 16.5995 6.27951 16.64 6.31999L23.67 13.35C23.88 13.56 24 13.84 24 14.14L23.99 15.96C24 15.97 24 15.99 24 16.01C24 16.29 23.78 16.51 23.5 16.51C23.22 16.51 23 16.29 23 16.01C23 16 23.0025 15.9925 23.005 15.985C23.0075 15.9775 23.01 15.97 23.01 15.96H23V14.75C23 14.49 22.89 14.24 22.71 14.06L16.56 7.91C16.25 7.6 15.75 7.6 15.44 7.91L9.28999 14.06C9.09999 14.24 9 14.49 9 14.75V15.96H8.99C8.99 15.97 8.9925 15.9775 8.995 15.985C8.9975 15.9925 9 16 9 16.01C9 16.29 8.78 16.51 8.5 16.51C8.22 16.51 8 16.29 8 16.01C8 16 8.0025 15.9925 8.005 15.985C8.0075 15.9775 8.00999 15.97 8.00999 15.96H8V14.14C8 13.85 8.11999 13.56 8.32999 13.35L15.36 6.31999C15.4063 6.27366 15.4567 6.23347 15.51 6.1994ZM15.5 14.91C15.5 14.9281 15.5009 14.946 15.5027 14.9636C15.4874 15.1077 15.5365 15.2565 15.65 15.37L17.13 16.85C17.22 16.95 17.35 17 17.48 17C17.61 17 17.73 16.95 17.84 16.85C18.04 16.65 18.04 16.34 17.84 16.14L16.5 14.8V13.5C16.5 13.22 16.28 13 16 13C15.72 13 15.5 13.22 15.5 13.5V14.91ZM19.01 30H12.96V24.7C12.96 24.31 13.27 24 13.66 24H18.31C18.7 24 19.01 24.31 19.01 24.7V30Z" fill="#7D4533"/>
</svg>

<svg xmlns="http://www.w3.org/2000/svg" width="32" height="32" fill="none"><path fill="#8C5543" d="M30 16.01H2l1.72-4.31c.17-.43.58-.71 1.04-.71h22.48c.46 0 .87.28 1.04.71L30 16.01Z"/><path fill="#C3EF3C" d="M17.51 3.33h2.69c.16 0 .29.13.29.29v1.42c0 .16-.13.29-.29.29h-2.08c-.33 0-.6-.27-.6-.6v-1.4h-.01Z"/><path fill="#00F397" d="M19.1 4.33H16v-2h3.1c.22 0 .4.18.4.4v1.19c.01.23-.17.41-.4.41Z"/><path fill="#FFDEA7" d="M2 16h7v14H2V16Zm28 0h-7v14h7V16Z" opacity=".7"/><path fill="#FFCE7C" d="M22.72 13.96 16.57 7.9a.79.79 0 0 0-1.12 0L9.3 13.96a.98.98 0 0 0-.29.68v15.37h3.967l3.014-1.207 3.014 1.207h4.005V14.63c-.01-.25-.11-.49-.29-.67Z"/><path fill="#83CBFF" d="M4.72 21H3.28c-.15 0-.28-.13-.28-.28v-2.44c0-.15.13-.28.28-.28h1.44c.15 0 .28.13.28.28v2.44c0 .16-.12.28-.28.28ZM8 20.72v-2.44c0-.15-.13-.28-.28-.28H6.28c-.15 0-.28.13-.28.28v2.44c0 .15.13.28.28.28h1.44c.16 0 .28-.12.28-.28Zm-3 4v-2.44c0-.15-.13-.28-.28-.28H3.28c-.15 0-.28.13-.28.28v2.44c0 .15.13.28.28.28h1.44c.16 0 .28-.12.28-.28Zm3 0v-2.44c0-.15-.13-.28-.28-.28H6.28c-.15 0-.28.13-.28.28v2.44c0 .15.13.28.28.28h1.44c.16 0 .28-.12.28-.28ZM25.72 21h-1.44c-.15 0-.28-.13-.28-.28v-2.44c0-.15.13-.28.28-.28h1.44c.15 0 .28.13.28.28v2.44c0 .16-.12.28-.28.28Zm1.56 0h1.44c.16 0 .28-.12.28-.28v-2.44c0-.15-.13-.28-.28-.28h-1.44c-.15 0-.28.13-.28.28v2.44c0 .15.13.28.28.28Zm-1.56 4h-1.44c-.15 0-.28-.13-.28-.28v-2.44c0-.15.13-.28.28-.28h1.44c.15 0 .28.13.28.28v2.44c0 .16-.12.28-.28.28Zm1.56 0h1.44c.16 0 .28-.12.28-.28v-2.44c0-.15-.13-.28-.28-.28h-1.44c-.15 0-.28.13-.28.28v2.44c0 .15.13.28.28.28Z"/><path fill="#fff" d="M16 18a3 3 0 1 0 0-6 3 3 0 0 0 0 6Z"/><path fill="#7D4533" d="M15.51 6.2V2.47c0-.26.21-.47.47-.47h.06c.26 0 .47.21.47.47v3.743c.046.03.09.067.13.107l7.03 7.03c.21.21.33.49.33.79l-.01 1.82c.01.01.01.03.01.05 0 .28-.22.5-.5.5s-.5-.22-.5-.5c0-.01.003-.018.005-.025.003-.008.005-.015.005-.025H23v-1.21c0-.26-.11-.51-.29-.69l-6.15-6.15a.79.79 0 0 0-1.12 0l-6.15 6.15c-.19.18-.29.43-.29.69v1.21h-.01c0 .01.002.017.005.025A.074.074 0 0 1 9 16.01c0 .28-.22.5-.5.5s-.5-.22-.5-.5c0-.01.002-.018.005-.025a.074.074 0 0 0 .005-.025H8v-1.82c0-.29.12-.58.33-.79l7.03-7.03a.888.888 0 0 1 .15-.12Zm-.01 8.71c0 .018 0 .036.003.054a.498.498 0 0 0 .147.406l1.48 1.48c.09.1.22.15.35.15.13 0 .25-.05.36-.15.2-.2.2-.51 0-.71L16.5 14.8v-1.3c0-.28-.22-.5-.5-.5s-.5.22-.5.5v1.41ZM19.01 30h-6.05v-5.3c0-.39.31-.7.7-.7h4.65c.39 0 .7.31.7.7V30Z"/></svg>
